src/lib/packages/icons/src/assets/line/arrow-turn-up-left.svg

<svg width="24" height="24" viewBox="0 0 24 24" fill="none" xmlns="http://www.w3.org/2000/svg">
<path d="M21.7501 13V18C21.7501 18.414 21.4141 18.75 21.0001 18.75C20.5861 18.75 20.2501 18.414 20.2501 18V13C20.2501 11.759 19.2401 10.75 18.0001 10.75H4.81115L7.53112 13.47C7.82412 13.763 7.82412 14.238 7.53112 14.531C7.38512 14.677 7.19309 14.751 7.00109 14.751C6.80909 14.751 6.61706 14.678 6.47106 14.531L2.47106 10.531C2.40206 10.462 2.3472 10.3791 2.3092 10.2871C2.2332 10.1041 2.2332 9.89713 2.3092 9.71413C2.3472 9.62213 2.40206 9.53899 2.47106 9.46999L6.47106 5.46999C6.76406 5.17699 7.2391 5.17699 7.5321 5.46999C7.8251 5.76299 7.8251 6.23803 7.5321 6.53103L4.81213 9.251H18.0001C20.0671 9.25 21.7501 10.932 21.7501 13Z" fill="currentColor"/>
</svg>

<svg xmlns="http://www.w3.org/2000/svg" width="24" height="24" fill="none"><path fill="currentColor" d="M21.75 13v5a.75.75 0 0 1-1.5 0v-5c0-1.241-1.01-2.25-2.25-2.25H4.811l2.72 2.72a.75.75 0 0 1-1.06 1.061l-4-4a.748.748 0 0 1-.162-.817.75.75 0 0 1 .162-.244l4-4a.75.75 0 1 1 1.061 1.061l-2.72 2.72H18A3.753 3.753 0 0 1 21.75 13Z"/></svg>
